Adwaita++/actions/symbolic/view-left-pane-symbolic.svg

<svg height="16" viewBox="0 0 16 16" width="16" xmlns="http://www.w3.org/2000/svg">
  <path d="m15 15h-2-10-2v-2-10-2h2 10 2v2 10zm-8-2v-1.003906-8-.996094h-.9804688c-.0068905-.000139-.0126062-.003906-.0195312-.003906h-2c-.00692 0-.012641.0038-.019531.0039h-.980469v.9961 8 1.003906z" fill="#474747"/>
</svg>

<svg xmlns="http://www.w3.org/2000/svg" width="16" height="16" version="1.1" viewBox="0 0 16 16">
 <path style="fill:#474747" d="M 15,15 H 13 3 1 V 13 3 1 h 2 10 2 V 3 13 Z M 7,13 v -1.003906 -8 V 3 H 6.0195312 C 6.0126407,2.999861 6.006925,2.996094 6,2.996094 H 4 c -0.00692,0 -0.012641,0.0038 -0.019531,0.0039 H 3 v 0.9961 8 V 13 Z"/>
</svg>
